packages/assets/static/images/icons/building.svg

<svg width="24" height="24" viewBox="0 0 24 24" xmlns="http://www.w3.org/2000/svg">
<path d="M17.5614 10.8035C17.2052 10.8035 16.9166 10.515 16.9166 10.1587C16.9166 7.51258 14.7638 5.36055 12.1185 5.36055C9.47316 5.36055 7.32031 7.51339 7.32031 10.1587C7.32031 10.515 7.03176 10.8035 6.67551 10.8035C6.31925 10.8035 6.0307 10.515 6.0307 10.1587C6.0307 6.80169 8.76146 4.07093 12.1185 4.07093C15.4755 4.07093 18.2062 6.80169 18.2062 10.1587C18.2062 10.515 17.9177 10.8035 17.5614 10.8035Z"/>
<path d="M21.5794 13.1466H2.39481C2.03855 13.1466 1.75 12.858 1.75 12.5018C1.75 12.1455 2.03855 11.857 2.39481 11.857H21.5786C21.9348 11.857 22.2234 12.1455 22.2234 12.5018C22.2234 12.858 21.9356 13.1466 21.5794 13.1466Z"/>
<path d="M21.606 22.0779H2.4069C2.05064 22.0779 1.76209 21.7894 1.76209 21.4331V17.7303C1.76209 17.3741 2.05064 17.0855 2.4069 17.0855H21.602C21.9582 17.0855 22.2468 17.3741 22.2468 17.7295L22.25 21.4323C22.25 21.6032 22.1823 21.7676 22.0614 21.8885C21.9405 22.0094 21.7769 22.0779 21.606 22.0779ZM3.0517 20.7883H20.9604L20.958 18.3751H3.0517V20.7883Z"/>
<path d="M12.1185 5.36055C11.7622 5.36055 11.4737 5.072 11.4737 4.71574V2.56692C11.4737 2.21067 11.7622 1.92212 12.1185 1.92212C12.4747 1.92212 12.7633 2.21067 12.7633 2.56692V4.71574C12.7633 5.072 12.4747 5.36055 12.1185 5.36055Z"/>
<path d="M18.818 12.4026C18.4618 12.4026 18.1732 12.1141 18.1732 11.7578V10.822H6.02345V11.7578C6.02345 12.1141 5.7349 12.4026 5.37864 12.4026C5.02239 12.4026 4.73384 12.1141 4.73384 11.7578V10.1772C4.73384 9.82099 5.02239 9.53244 5.37864 9.53244H18.818C19.1743 9.53244 19.4628 9.82099 19.4628 10.1772V11.7578C19.4628 12.1141 19.1743 12.4026 18.818 12.4026Z"/>
<path d="M3.10329 18.164C2.74703 18.164 2.45848 17.8754 2.45848 17.5192V12.6211C2.45848 12.2648 2.74703 11.9763 3.10329 11.9763C3.45954 11.9763 3.74809 12.2648 3.74809 12.6211V17.5192C3.74809 17.8754 3.45954 18.164 3.10329 18.164Z"/>
<path d="M20.9668 18.164C20.6106 18.164 20.322 17.8754 20.322 17.5192V12.6211C20.322 12.2648 20.6106 11.9763 20.9668 11.9763C21.3231 11.9763 21.6116 12.2648 21.6116 12.6211V17.5192C21.6116 17.8754 21.3231 18.164 20.9668 18.164Z"/>
<path d="M7.56937 18.164C7.21312 18.164 6.92457 17.8754 6.92457 17.5192V12.6211C6.92457 12.2648 7.21312 11.9763 7.56937 11.9763C7.92563 11.9763 8.21418 12.2648 8.21418 12.6211V17.5192C8.21418 17.8754 7.92563 18.164 7.56937 18.164Z"/>
<path d="M12.0355 18.164C11.6792 18.164 11.3907 17.8754 11.3907 17.5192V12.6211C11.3907 12.2648 11.6792 11.9763 12.0355 11.9763C12.3917 11.9763 12.6803 12.2648 12.6803 12.6211V17.5192C12.6803 17.8754 12.3917 18.164 12.0355 18.164Z"/>
<path d="M16.5015 18.164C16.1453 18.164 15.8567 17.8754 15.8567 17.5192V12.6211C15.8567 12.2648 16.1453 11.9763 16.5015 11.9763C16.8578 11.9763 17.1463 12.2648 17.1463 12.6211V17.5192C17.1463 17.8754 16.8578 18.164 16.5015 18.164Z"/>
</svg>

<svg viewBox="0 0 24 24" xmlns="http://www.w3.org/2000/svg" aria-hidden="true" fill="currentColor"><path d="M17.561 10.804a.645.645 0 0 1-.644-.645 4.804 4.804 0 0 0-4.799-4.798 4.804 4.804 0 0 0-4.798 4.798.645.645 0 1 1-1.29 0 6.094 6.094 0 0 1 6.088-6.088 6.094 6.094 0 0 1 6.088 6.088.645.645 0 0 1-.645.644m4.018 2.343H2.395a.645.645 0 1 1 0-1.29h19.184a.645.645 0 0 1 0 1.29m.027 8.93h-19.2a.645.645 0 0 1-.644-.644V17.73c0-.356.289-.645.645-.645h19.195c.356 0 .645.29.645.645l.003 3.702a.645.645 0 0 1-.644.646M3.052 20.789H20.96l-.002-2.413H3.052z"/><path d="M12.119 5.36a.645.645 0 0 1-.645-.644v-2.15a.645.645 0 1 1 1.29 0v2.15a.645.645 0 0 1-.646.645m6.699 7.043a.645.645 0 0 1-.645-.645v-.936H6.023v.936a.645.645 0 1 1-1.29 0v-1.58c0-.357.29-.646.646-.646h13.439c.356 0 .645.289.645.645v1.58a.645.645 0 0 1-.645.646m-15.715 5.76a.645.645 0 0 1-.645-.645v-4.898a.645.645 0 1 1 1.29 0v4.898a.645.645 0 0 1-.645.645m17.864 0a.645.645 0 0 1-.645-.645v-4.898a.645.645 0 1 1 1.29 0v4.898a.645.645 0 0 1-.645.645"/><path d="M7.57 18.164a.645.645 0 0 1-.645-.645v-4.898a.645.645 0 1 1 1.29 0v4.898a.645.645 0 0 1-.646.645m4.466 0a.645.645 0 0 1-.645-.645v-4.898a.645.645 0 1 1 1.29 0v4.898a.645.645 0 0 1-.645.645m4.466 0a.645.645 0 0 1-.645-.645v-4.898a.645.645 0 1 1 1.29 0v4.898a.645.645 0 0 1-.645.645"/></svg>
